X:288
T:It's a Long Way to Tipperary
M:4/4
L:1/8
K:G
B,C | D2 D3 DE F | G2 B4 BA | G2 E4 G2 | D2-D4 B,-C | 
D2 D3 DE F | G2 B4 FG | A2 E2 F2 G2 | A8 | D2 D3D-E F | 
G2 B4- B2 | c2 G2 G2 A2 | B4-BG-G A | B2 B2 BG AG | 
E4 D2G-A | B2 G4 A2 | G6 z || 

